packages/core/src/svgs/pnb.svg

<svg width="24" height="24" viewBox="0 0 24 24" fill="none" xmlns="http://www.w3.org/2000/svg">
<g clip-path="url(#clip0_31_16141)">
<path d="M0 0H24V24H0V0Z" fill="#F1396D"/>
<path d="M5.14282 9.96021V12.7459C5.14282 13.3374 5.62282 13.7145 6.20997 13.7145H6.85711V14.8931C6.85711 15.4888 7.08854 15.8574 7.67568 15.8574H8.14282V17.7816C8.14282 18.3731 8.51997 18.8574 9.10711 18.8574H10.6071C11.1985 18.8574 11.5714 18.3731 11.5714 17.7816V6.21878C11.5714 5.62735 11.1985 5.14307 10.6114 5.14307H9.00854C8.42139 5.14307 8.14282 5.62735 8.14282 6.21449V6.85735H7.06711C6.77948 6.8663 6.50679 6.98746 6.30735 7.1949C6.10792 7.40234 5.99759 7.6796 5.99997 7.96735V9.00021C5.47282 9.0645 5.14282 9.41592 5.14282 9.96021ZM5.57139 9.96021C5.57139 9.66449 5.84139 9.42878 6.13282 9.42878H6.80139C7.09282 9.42878 7.48711 9.66449 7.48711 9.96021V10.1916C7.32854 10.2859 7.19139 10.4574 7.19139 10.6545C7.19139 10.9545 7.40568 11.1474 7.70568 11.1474C7.99711 11.1474 8.21139 10.9502 8.21139 10.6545C8.21139 10.4574 8.09997 10.2859 7.94139 10.1916V9.96021C7.94139 9.36878 7.38854 9.00021 6.80139 9.00021H6.42854V7.96735C6.42854 7.66735 6.77139 7.28592 7.06711 7.28592H8.47711C8.77282 7.28592 8.99997 7.67164 8.99997 7.96735V8.31021C8.84139 8.40449 8.74282 8.57592 8.74282 8.77307C8.74282 9.07307 8.97425 9.26592 9.21425 9.26164C9.45425 9.25735 9.71139 9.06878 9.71139 8.77307C9.71139 8.57592 9.58711 8.40449 9.42854 8.31021V7.96735C9.42854 7.37164 9.15854 6.85307 8.57139 6.85307V6.21449C8.57139 5.91449 8.71711 5.56735 9.00854 5.56735H10.6114C10.9028 5.56735 11.1428 5.91878 11.1428 6.21021V17.7859C11.1428 18.0859 10.9028 18.4331 10.6114 18.4331H9.11139C8.81139 18.4331 8.57139 18.0816 8.57139 17.7859V15.8574H9.21425C9.30854 16.0159 9.44997 16.1231 9.67711 16.1231C9.90425 16.1231 10.1614 15.9859 10.1614 15.6902C10.1614 15.3902 9.97282 15.1631 9.67711 15.1631C9.47997 15.1631 9.30854 15.2702 9.21854 15.4288H7.73139C7.43568 15.4288 7.28568 15.1888 7.28568 14.8931V13.7145H8.47711C9.06425 13.7145 9.42854 13.3374 9.42854 12.7459V12.4631C9.58711 12.3688 9.71139 12.1974 9.71139 12.0002C9.71139 11.7002 9.51854 11.5074 9.22282 11.5074C8.92711 11.5074 8.74282 11.7002 8.74282 12.0002C8.74282 12.1974 8.84139 12.3688 8.99997 12.4631V12.7459C8.99997 13.0416 8.76854 13.2859 8.47711 13.2859H6.20997C5.91425 13.2859 5.57139 13.0416 5.57139 12.7459V9.96021ZM8.95711 12.0002C8.95711 11.8502 9.07711 11.7302 9.22282 11.7302C9.36854 11.7302 9.48854 11.8502 9.48854 12.0002C9.48854 12.1459 9.36854 12.2702 9.22282 12.2702C9.18756 12.2702 9.15266 12.2632 9.12014 12.2496C9.08762 12.236 9.05813 12.216 9.0334 12.1909C9.00867 12.1657 8.98919 12.1359 8.97609 12.1032C8.96299 12.0705 8.95654 12.0355 8.95711 12.0002ZM9.67711 15.3816C9.82282 15.3816 9.94282 15.5016 9.94282 15.6516C9.94282 15.7974 9.82282 15.9174 9.67711 15.9174C9.60698 15.9162 9.54004 15.8879 9.49044 15.8383C9.44085 15.7887 9.4125 15.7218 9.41139 15.6516C9.41139 15.5016 9.53139 15.3816 9.67711 15.3816ZM9.48425 8.77307C9.49126 8.81195 9.48965 8.85191 9.47954 8.8901C9.46942 8.9283 9.45105 8.96381 9.4257 8.99413C9.40036 9.02445 9.36868 9.04884 9.33288 9.06557C9.29708 9.08231 9.25805 9.09098 9.21854 9.09098C9.17902 9.09098 9.13999 9.08231 9.10419 9.06557C9.0684 9.04884 9.03671 9.02445 9.01137 8.99413C8.98603 8.96381 8.96765 8.9283 8.95753 8.8901C8.94742 8.85191 8.94581 8.81195 8.95282 8.77307C8.95282 8.62307 9.06854 8.50307 9.21425 8.50307C9.36425 8.50307 9.48425 8.62307 9.48425 8.77307ZM7.97139 10.6588C7.96016 10.7211 7.9274 10.7774 7.87883 10.818C7.83026 10.8586 7.76898 10.8809 7.70568 10.8809C7.64238 10.8809 7.5811 10.8586 7.53253 10.818C7.48396 10.7774 7.4512 10.7211 7.43997 10.6588C7.43997 10.5088 7.55568 10.3845 7.70139 10.3845C7.85139 10.3845 7.97139 10.5088 7.97139 10.6545V10.6588ZM18.8571 9.96021V12.7459C18.8571 13.3374 18.3771 13.7145 17.79 13.7145H17.1428V14.8931C17.1428 15.4888 16.9114 15.8574 16.3243 15.8574H15.8571V17.7816C15.8571 18.3731 15.48 18.8574 14.8928 18.8574H13.3928C12.7971 18.8574 12.4285 18.3731 12.4285 17.7816V6.21878C12.4285 5.62735 12.8014 5.14307 13.3885 5.14307H14.9914C15.5785 5.14307 15.8571 5.62735 15.8571 6.21449V6.85735H16.9328C17.52 6.85735 18 7.37164 18 7.96735V9.00021C18.5271 9.0645 18.8571 9.41592 18.8571 9.96021ZM18.4285 9.96021C18.4285 9.66449 18.1585 9.42878 17.8671 9.42878H17.1985C16.9071 9.42878 16.5128 9.66449 16.5128 9.96021V10.1916C16.6714 10.2859 16.8085 10.4574 16.8085 10.6545C16.8085 10.9545 16.5943 11.1474 16.2943 11.1474C16.0028 11.1474 15.7885 10.9502 15.7885 10.6545C15.7885 10.4574 15.9 10.2859 16.0585 10.1916V9.96021C16.0585 9.36878 16.6114 9.00021 17.1985 9.00021H17.5714V7.96735C17.5714 7.66735 17.2285 7.28592 16.9328 7.28592H15.5228C15.2271 7.28592 15 7.67164 15 7.96735V8.31021C15.1585 8.40449 15.2571 8.57592 15.2571 8.77307C15.2571 9.07307 15.0257 9.26592 14.7857 9.26164C14.5457 9.25735 14.2885 9.06878 14.2885 8.77307C14.2885 8.57592 14.4128 8.40449 14.5714 8.31021V7.96735C14.5714 7.37164 14.8414 6.85307 15.4285 6.85307V6.21449C15.4285 5.91449 15.2828 5.56735 14.9914 5.56735H13.3885C13.0971 5.56735 12.8571 5.91878 12.8571 6.21021V17.7859C12.8571 18.0859 13.0971 18.4331 13.3885 18.4331H14.8885C15.1885 18.4331 15.4285 18.0816 15.4285 17.7859V15.8574H14.7857C14.6914 16.0159 14.55 16.1231 14.3228 16.1231C14.0957 16.1231 13.8385 15.9859 13.8385 15.6902C13.8385 15.3902 14.0271 15.1631 14.3228 15.1631C14.52 15.1631 14.6914 15.2702 14.7814 15.4288H16.2685C16.5643 15.4288 16.7143 15.1888 16.7143 14.8931V13.7145H15.5228C14.9357 13.7145 14.5714 13.3374 14.5714 12.7459V12.4631C14.4882 12.4171 14.4183 12.3502 14.3688 12.269C14.3192 12.1879 14.2915 12.0953 14.2885 12.0002C14.2885 11.7002 14.4814 11.5074 14.7771 11.5074C15.0728 11.5074 15.2571 11.7002 15.2571 12.0002C15.2571 12.1974 15.1585 12.3688 15 12.4631V12.7459C15 13.0416 15.2314 13.2859 15.5228 13.2859H17.79C18.0857 13.2859 18.4285 13.0416 18.4285 12.7459V9.96021ZM15.0428 12.0002C15.0428 11.9293 15.015 11.8613 14.9653 11.8108C14.9156 11.7603 14.848 11.7313 14.7771 11.7302C14.7062 11.7313 14.6387 11.7603 14.589 11.8108C14.5392 11.8613 14.5114 11.9293 14.5114 12.0002C14.5114 12.1459 14.6314 12.2702 14.7771 12.2702C14.9228 12.2702 15.0428 12.1502 15.0428 12.0002ZM14.3228 15.3816C14.252 15.3828 14.1844 15.4117 14.1347 15.4622C14.085 15.5127 14.0571 15.5808 14.0571 15.6516C14.0571 15.7974 14.1771 15.9174 14.3228 15.9174C14.3939 15.9174 14.462 15.8891 14.5122 15.8389C14.5625 15.7887 14.5907 15.7205 14.5907 15.6495C14.5907 15.5785 14.5625 15.5103 14.5122 15.4601C14.462 15.4099 14.3939 15.3816 14.3228 15.3816ZM14.5157 8.77307C14.5087 8.81195 14.5103 8.85191 14.5204 8.8901C14.5305 8.9283 14.5489 8.96381 14.5742 8.99413C14.5996 9.02445 14.6313 9.04884 14.6671 9.06557C14.7028 9.08231 14.7419 9.09098 14.7814 9.09098C14.8209 9.09098 14.8599 9.08231 14.8957 9.06557C14.9315 9.04884 14.9632 9.02445 14.9886 8.99413C15.0139 8.96381 15.0323 8.9283 15.0424 8.8901C15.0525 8.85191 15.0541 8.81195 15.0471 8.77307C15.0471 8.70292 15.0199 8.63551 14.9711 8.58511C14.9223 8.53472 14.8558 8.50529 14.7857 8.50307C14.7141 8.50307 14.6454 8.53151 14.5948 8.58215C14.5441 8.63278 14.5157 8.70146 14.5157 8.77307ZM16.0285 10.6588C16.0398 10.7211 16.0725 10.7774 16.1211 10.818C16.1697 10.8586 16.231 10.8809 16.2943 10.8809C16.3575 10.8809 16.4188 10.8586 16.4674 10.818C16.516 10.7774 16.5487 10.7211 16.56 10.6588C16.5611 10.5879 16.5344 10.5194 16.4854 10.4681C16.4365 10.4168 16.3694 10.3867 16.2985 10.3845C16.2631 10.3845 16.228 10.3915 16.1952 10.405C16.1625 10.4186 16.1327 10.4385 16.1076 10.4636C16.0825 10.4886 16.0627 10.5184 16.0491 10.5512C16.0355 10.5839 16.0285 10.619 16.0285 10.6545V10.6588Z" fill="white"/>
</g>
<defs>
<clipPath id="clip0_31_16141">
<rect width="24" height="24" fill="white"/>
</clipPath>
</defs>
</svg>

<svg xmlns="http://www.w3.org/2000/svg" width="24" height="24" fill="none" viewBox="0 0 24 24"><g clip-path="url(#a)"><path fill="#F1396D" d="M0 0h24v24H0z"/><path fill="#fff" d="M5.143 9.96v2.786c0 .591.48.968 1.067.968h.647v1.18c0 .595.232.963.819.963h.467v1.925c0 .591.377 1.075.964 1.075h1.5c.591 0 .964-.484.964-1.075V6.219c0-.592-.373-1.076-.96-1.076H9.01c-.588 0-.866.484-.866 1.071v.643H7.067A1.1 1.1 0 0 0 6 7.967V9c-.527.065-.857.416-.857.96m.428 0c0-.296.27-.531.562-.531H6.8c.292 0 .686.235.686.531v.232c-.158.094-.296.265-.296.463 0 .3.215.492.515.492.291 0 .505-.197.505-.492a.54.54 0 0 0-.27-.463V9.96c0-.591-.552-.96-1.14-.96H6.43V7.967c0-.3.342-.681.638-.681h1.41c.296 0 .523.386.523.681v.343a.53.53 0 0 0-.257.463c0 .3.231.493.471.489s.497-.193.497-.489a.56.56 0 0 0-.282-.463v-.343c0-.595-.27-1.114-.858-1.114v-.639c0-.3.146-.647.438-.647h1.602c.292 0 .532.352.532.643v11.576c0 .3-.24.647-.532.647h-1.5c-.3 0-.54-.351-.54-.647v-1.929h.643a.5.5 0 0 0 .463.266c.227 0 .484-.137.484-.433 0-.3-.188-.527-.484-.527a.53.53 0 0 0-.458.266H7.73c-.295 0-.445-.24-.445-.536v-1.179h1.191c.587 0 .952-.377.952-.968v-.283A.56.56 0 0 0 9.71 12c0-.3-.192-.493-.488-.493s-.48.193-.48.493a.53.53 0 0 0 .257.463v.283c0 .296-.231.54-.523.54H6.21c-.296 0-.639-.244-.639-.54zM8.957 12c0-.15.12-.27.266-.27s.266.12.266.27a.27.27 0 0 1-.266.27.266.266 0 0 1-.266-.27m.72 3.382a.268.268 0 0 1 0 .535.27.27 0 0 1-.266-.265c0-.15.12-.27.266-.27m-.193-6.609a.27.27 0 1 1-.531 0c0-.15.116-.27.261-.27.15 0 .27.12.27.27M7.971 10.66a.27.27 0 0 1-.531 0c0-.15.116-.275.261-.275.15 0 .27.125.27.27zm10.886-.699v2.786c0 .591-.48.968-1.067.968h-.647v1.18c0 .595-.232.963-.819.963h-.467v1.925c0 .591-.377 1.075-.964 1.075h-1.5c-.596 0-.965-.484-.965-1.075V6.219c0-.592.373-1.076.96-1.076h1.603c.588 0 .866.484.866 1.071v.643h1.076c.587 0 1.067.515 1.067 1.11V9c.527.065.857.416.857.96m-.428 0c0-.296-.27-.531-.562-.531h-.669c-.29 0-.685.235-.685.531v.232c.158.094.295.265.295.463 0 .3-.214.492-.514.492-.291 0-.505-.197-.505-.492 0-.198.111-.37.27-.463V9.96c0-.591.552-.96 1.14-.96h.372V7.967c0-.3-.343-.681-.638-.681h-1.41c-.296 0-.523.386-.523.681v.343a.53.53 0 0 1 .257.463c0 .3-.231.493-.471.489s-.497-.193-.497-.489c0-.197.124-.369.282-.463v-.343c0-.595.27-1.114.857-1.114v-.639c0-.3-.145-.647-.437-.647H13.39c-.292 0-.532.352-.532.643v11.576c0 .3.24.647.532.647h1.5c.3 0 .54-.351.54-.647v-1.929h-.643a.5.5 0 0 1-.463.266c-.227 0-.485-.137-.485-.433 0-.3.19-.527.485-.527.197 0 .368.107.458.266h1.487c.296 0 .446-.24.446-.536v-1.179h-1.191c-.587 0-.952-.377-.952-.968v-.283A.55.55 0 0 1 14.29 12c0-.3.192-.493.488-.493s.48.193.48.493a.53.53 0 0 1-.257.463v.283c0 .296.231.54.523.54h2.267c.296 0 .639-.244.639-.54zM15.043 12a.27.27 0 0 0-.266-.27.27.27 0 0 0 0 .54c.146 0 .266-.12.266-.27m-.72 3.382a.27.27 0 0 0-.266.27.267.267 0 1 0 .455-.192.27.27 0 0 0-.19-.078m.193-6.609a.27.27 0 1 0 .531 0 .27.27 0 0 0-.261-.27.27.27 0 0 0-.27.27m1.513 1.886a.27.27 0 0 0 .531 0 .27.27 0 0 0-.261-.275.27.27 0 0 0-.27.27z"/></g><defs><clipPath id="a"><path fill="#fff" d="M0 0h24v24H0z"/></clipPath></defs></svg>
